src/assets/Logo_Vibely.svg

<svg fill="none" height="23" viewBox="0 0 23 23" width="23" xmlns="http://www.w3.org/2000/svg" xmlns:xlink="http://www.w3.org/1999/xlink"><filter id="a" color-interpolation-filters="sRGB" filterUnits="userSpaceOnUse" height="20.72" width="19.152" x="1.81199" y="2.024"><feFlood flood-opacity="0" result="BackgroundImageFix"/><feColorMatrix in="SourceAlpha" result="hardAlpha" type="matrix" values="0 0 0 0 0 0 0 0 0 0 0 0 0 0 0 0 0 0 127 0"/><feOffset/><feGaussianBlur stdDeviation="2.1"/><feComposite in2="hardAlpha" operator="out"/><feColorMatrix type="matrix" values="0 0 0 0 0.800932 0 0 0 0 0.7968 0 0 0 0 0.784115 0 0 0 1 0"/><feBlend in2="BackgroundImageFix" mode="normal" result="effect1_dropShadow_76_9"/><feBlend in="SourceGraphic" in2="effect1_dropShadow_76_9" mode="normal" result="shape"/></filter><linearGradient id="b" gradientUnits="userSpaceOnUse" x1="5" x2="9.5" y1="-10.5" y2="45.5"><stop offset=".355769" stop-color="#ebbab9"/><stop offset=".548077" stop-color="#cccbc8"/></linearGradient><path d="m11.5 0c6.3513 0 11.5 5.14873 11.5 11.5 0 6.3513-5.1487 11.5-11.5 11.5-1.86991 0-3.63423-.4489-5.19488-1.2409-.08501-.0431-.18236-.056-.27529-.0347l-4.97911 1.1402c-.335787.0769-.605254-.2783-.440707-.581l1.811267-3.3312c.07722-.1421.06085-.3162-.03778-.4443-1.493934-1.9403-2.3835-4.37-2.3835-7.0081 0-6.35127 5.14873-11.5 11.5-11.5z" fill="url(#b)"/><g filter="url(#a)"><path d="m8.796 6.224 3.44 8.48-1.344-.272 3.12-8.208h2.752l-5.376 12.32-5.376-12.32z" fill="#fff"/></g></svg>

<svg width="23" height="23" viewBox="0 0 23 23" fill="none" xmlns="http://www.w3.org/2000/svg">
<path d="M11.5 0C17.8513 0 23 5.14873 23 11.5C23 17.8513 17.8513 23 11.5 23C9.63009 23 7.86577 22.5511 6.30512 21.7591C6.22011 21.716 6.12276 21.7031 6.02983 21.7244L1.05072 22.8646C0.714933 22.9415 0.445466 22.5863 0.610013 22.2836L2.42128 18.9524C2.4985 18.8103 2.48213 18.6362 2.3835 18.5081C0.889566 16.5678 0 14.1381 0 11.5C0 5.14873 5.14873 0 11.5 0Z" fill="url(#paint0_linear_76_9)"/>
<g filter="url(#filter0_d_76_9)">
<path d="M8.796 6.224L12.236 14.704L10.892 14.432L14.012 6.224H16.764L11.388 18.544L6.012 6.224H8.796Z" fill="white"/>
</g>
<defs>
<filter id="filter0_d_76_9" x="1.81199" y="2.024" width="19.152" height="20.72" filterUnits="userSpaceOnUse" color-interpolation-filters="sRGB">
<feFlood flood-opacity="0" result="BackgroundImageFix"/>
<feColorMatrix in="SourceAlpha" type="matrix" values="0 0 0 0 0 0 0 0 0 0 0 0 0 0 0 0 0 0 127 0" result="hardAlpha"/>
<feOffset/>
<feGaussianBlur stdDeviation="2.1"/>
<feComposite in2="hardAlpha" operator="out"/>
<feColorMatrix type="matrix" values="0 0 0 0 0.800932 0 0 0 0 0.7968 0 0 0 0 0.784115 0 0 0 1 0"/>
<feBlend mode="normal" in2="BackgroundImageFix" result="effect1_dropShadow_76_9"/>
<feBlend mode="normal" in="SourceGraphic" in2="effect1_dropShadow_76_9" result="shape"/>
</filter>
<linearGradient id="paint0_linear_76_9" x1="5" y1="-10.5" x2="9.5" y2="45.5" gradientUnits="userSpaceOnUse">
<stop offset="0.355769" stop-color="#EBBAB9"/>
<stop offset="0.548077" stop-color="#CCCBC8"/>
</linearGradient>
</defs>
</svg>
